icons/vb.svg

<svg width="16" height="16" viewBox="0 0 16 16" fill="none" xmlns="http://www.w3.org/2000/svg">
<path fill-rule="evenodd" clip-rule="evenodd" d="M5.77407 8.02093C5.74851 8.05944 5.72477 8.09497 5.7033 8.12646C5.56076 8.33549 5.44336 8.48567 5.31632 8.60417C5.11137 8.79536 4.78482 9 4 9C3.59397 9 3.37939 8.83918 3.2375 8.65C3.06374 8.41832 3 8.13232 3 8C3 7.64857 3.0898 7.40429 3.20572 7.26518C3.29491 7.15816 3.49048 7 4 7C4.48247 7 5.07408 7.17387 5.77407 8.02093ZM6.97441 6.36634C6.06937 5.43048 5.07808 5 4 5C3.00952 5 2.20509 5.34184 1.66928 5.98482C1.1602 6.59571 1 7.35143 1 8C1 8.53435 1.18626 9.24834 1.6375 9.85C2.12061 10.4941 2.90603 11 4 11C5.21518 11 6.05322 10.6519 6.68057 10.0666C6.79175 9.96293 6.89207 9.85563 6.98313 9.74864C7.34765 10.2523 7.71441 10.6953 8.12252 11.0421C8.91495 11.7154 9.81314 12 11 12C11.9631 12 12.9588 11.6801 13.7269 10.9974C14.5133 10.2984 15 9.27136 15 8C15 6.84586 14.7108 5.79657 13.9571 5.04289C13.2034 4.28921 12.1541 4 11 4C9.62999 4 8.56114 4.72264 7.80976 5.4425C7.49881 5.7404 7.2177 6.06309 6.97441 6.36634ZM8.22154 8.02584C8.71858 8.75858 9.05868 9.21306 9.41755 9.51799C9.77842 9.82463 10.1869 10 11 10C11.5369 10 12.0412 9.8199 12.3981 9.50259C12.7367 9.20164 13 8.72864 13 8C13 7.15414 12.7892 6.70343 12.5429 6.45711C12.2966 6.21079 11.8459 6 11 6C10.37 6 9.77427 6.33014 9.19335 6.88668C8.81165 7.25238 8.4979 7.65247 8.22154 8.02584Z" fill="url(#paint0_linear_1788_84)"/>
<defs>
<linearGradient id="paint0_linear_1788_84" x1="1" y1="8" x2="15" y2="8" gradientUnits="userSpaceOnUse">
<stop stop-color="#1E93FF"/>
<stop offset="1" stop-color="#B56AFF"/>
</linearGradient>
</defs>
</svg>

<svg xmlns="http://www.w3.org/2000/svg" width="16" height="16" fill="none" viewBox="0 0 16 16"><path fill="url(#paint0_linear_1788_84)" fill-rule="evenodd" d="m5.774 8.02-.07.106c-.143.21-.26.36-.388.478C5.111 8.795 4.785 9 4 9c-.406 0-.62-.16-.763-.35A1.23 1.23 0 0 1 3 8c0-.351.09-.596.206-.735C3.295 7.158 3.49 7 4 7c.482 0 1.074.174 1.774 1.02m1.2-1.654C6.07 5.43 5.078 5 4 5c-.99 0-1.795.342-2.33.985C1.16 6.595 1 7.35 1 8c0 .534.186 1.248.638 1.85C2.12 10.494 2.906 11 4 11c1.215 0 2.053-.348 2.68-.933a4 4 0 0 0 .303-.318c.365.503.731.946 1.14 1.293.792.673 1.69.958 2.877.958.963 0 1.959-.32 2.727-1.003C14.513 10.298 15 9.271 15 8c0-1.154-.29-2.203-1.043-2.957C13.203 4.289 12.154 4 11 4c-1.37 0-2.439.723-3.19 1.443a10 10 0 0 0-.836.923m1.248 1.66c.497.733.837 1.187 1.196 1.492.36.307.769.482 1.582.482.537 0 1.041-.18 1.398-.497C12.737 9.202 13 8.729 13 8c0-.846-.21-1.297-.457-1.543C12.297 6.211 11.846 6 11 6c-.63 0-1.226.33-1.807.887a9 9 0 0 0-.971 1.139" clip-rule="evenodd"/><defs><linearGradient id="paint0_linear_1788_84" x1="1" x2="15" y1="8" y2="8" gradientUnits="userSpaceOnUse"><stop stop-color="#1E93FF"/><stop offset="1" stop-color="#B56AFF"/></linearGradient></defs></svg>
